src/app/components/images/left_arrow.svg

<svg width="30" height="37" viewBox="0 0 30 37" fill="none" xmlns="http://www.w3.org/2000/svg">
<g filter="url(#filter0_f_79_31)">
<path d="M3.52997 20.2059C2.33196 19.4155 2.33195 17.6577 3.52997 16.8672L24.1485 3.26253C25.4782 2.38515 27.25 3.33879 27.25 4.93188V32.1413C27.25 33.7344 25.4782 34.688 24.1485 33.8106L3.52997 20.2059Z" fill="#FEFEFE"/>
<path d="M3.80535 17.2846L24.4239 3.67987C25.4212 3.02183 26.75 3.73706 26.75 4.93188V32.1413C26.75 33.3361 25.4212 34.0514 24.4239 33.3933L3.80535 19.7886C2.90683 19.1957 2.90683 17.8774 3.80535 17.2846Z" stroke="#DB25C1"/>
</g>
<defs>
<filter id="filter0_f_79_31" x="0.63147" y="0.928558" width="28.6185" height="35.2161" filterUnits="userSpaceOnUse" color-interpolation-filters="sRGB">
<feFlood flood-opacity="0" result="BackgroundImageFix"/>
<feBlend mode="normal" in="SourceGraphic" in2="BackgroundImageFix" result="shape"/>
<feGaussianBlur stdDeviation="1" result="effect1_foregroundBlur_79_31"/>
</filter>
</defs>
</svg>

<svg width="30" height="37" fill="none" xmlns="http://www.w3.org/2000/svg"><g filter="url(#a)"><path d="M3.53 20.206a2 2 0 0 1 0-3.339L24.149 3.263c1.33-.878 3.101.076 3.101 1.669v27.21c0 1.592-1.772 2.546-3.102 1.669L3.53 20.206z" fill="#FEFEFE"/><path d="M3.805 17.285 24.424 3.68c.997-.658 2.326.057 2.326 1.252v27.21c0 1.194-1.329 1.91-2.326 1.251L3.805 19.79a1.5 1.5 0 0 1 0-2.504z" stroke="#DB25C1"/></g><defs><filter id="a" x=".631" y=".929" width="28.619" height="35.216" filterUnits="userSpaceOnUse" color-interpolation-filters="sRGB"><feFlood flood-opacity="0" result="BackgroundImageFix"/><feBlend in="SourceGraphic" in2="BackgroundImageFix" result="shape"/><feGaussianBlur stdDeviation="1" result="effect1_foregroundBlur_79_31"/></filter></defs></svg>
